_inc/systems/logos-bw/odyssey2.svg

<?xml version="1.0" encoding="utf-8"?>
<!-- Generator: Adobe Illustrator 25.2.1, SVG Export Plug-In . SVG Version: 6.00 Build 0)  -->
<svg version="1.1" id="Layer_1" xmlns="http://www.w3.org/2000/svg" xmlns:xlink="http://www.w3.org/1999/xlink" x="0px" y="0px"
	 viewBox="0 0 3839 1509.7" style="enable-background:new 0 0 3839 1509.7;" xml:space="preserve">
<style type="text/css">
	.st0{fill:#FFFFFF;}
	.st1{clip-path:url(#SVGID_2_);}
	.st2{fill:#EC1E24;stroke:url(#SVGID_3_);stroke-width:3.6108;stroke-miterlimit:10;}
	.st3{fill:#EC1E24;stroke:url(#SVGID_4_);stroke-width:3.6108;stroke-miterlimit:10;}
	.st4{fill:#E4E4E4;}
	.st5{fill:#EC1E24;stroke:url(#SVGID_5_);stroke-width:3.6108;stroke-miterlimit:10;}
	.st6{fill:#EC1E24;}
	.st7{fill:#F06922;}
	.st8{clip-path:url(#SVGID_7_);}
	.st9{fill:#EC1E24;stroke:url(#SVGID_8_);stroke-width:3.6108;stroke-miterlimit:10;}
	.st10{fill:#EC1E24;stroke:url(#SVGID_9_);stroke-width:3.6108;stroke-miterlimit:10;}
	.st11{fill:#EC1E24;stroke:url(#SVGID_10_);stroke-width:3.6108;stroke-miterlimit:10;}
	.st12{clip-path:url(#SVGID_12_);}
	.st13{fill:url(#SVGID_13_);}
	.st14{fill:#EC1E24;stroke:url(#SVGID_14_);stroke-width:3.6109;stroke-miterlimit:10;}
	.st15{fill:#EC1E24;stroke:url(#SVGID_15_);stroke-width:3.6109;stroke-miterlimit:10;}
	.st16{fill:#EC1E24;stroke:url(#SVGID_16_);stroke-width:3.6109;stroke-miterlimit:10;}
	.st17{clip-path:url(#SVGID_18_);}
	.st18{fill:url(#SVGID_19_);}
	.st19{fill:#EC1E24;stroke:url(#SVGID_20_);stroke-width:3.6109;stroke-miterlimit:10;}
	.st20{fill:#EC1E24;stroke:url(#SVGID_21_);stroke-width:3.6109;stroke-miterlimit:10;}
	.st21{fill:#EC1E24;stroke:url(#SVGID_22_);stroke-width:3.6109;stroke-miterlimit:10;}
	.st22{clip-path:url(#SVGID_24_);}
	.st23{fill:#13E1DB;stroke:url(#SVGID_25_);stroke-width:3.6108;stroke-miterlimit:10;}
	.st24{fill:#13E1DB;stroke:url(#SVGID_26_);stroke-width:3.6108;stroke-miterlimit:10;}
	.st25{fill:#1B1B1B;}
	.st26{fill:#13E1DB;stroke:url(#SVGID_27_);stroke-width:3.6108;stroke-miterlimit:10;}
	.st27{fill:#13E1DB;}
	.st28{fill:#0F96DD;}
	.st29{clip-path:url(#SVGID_29_);}
	.st30{fill:#13E1DB;stroke:url(#SVGID_30_);stroke-width:3.6108;stroke-miterlimit:10;}
	.st31{fill:#13E1DB;stroke:url(#SVGID_31_);stroke-width:3.6108;stroke-miterlimit:10;}
	.st32{fill:#13E1DB;stroke:url(#SVGID_32_);stroke-width:3.6108;stroke-miterlimit:10;}
	.st33{clip-path:url(#SVGID_34_);}
	.st34{fill:url(#SVGID_35_);}
	.st35{fill:#13E1DB;stroke:url(#SVGID_36_);stroke-width:3.6109;stroke-miterlimit:10;}
	.st36{fill:#13E1DB;stroke:url(#SVGID_37_);stroke-width:3.6109;stroke-miterlimit:10;}
	.st37{fill:#13E1DB;stroke:url(#SVGID_38_);stroke-width:3.6109;stroke-miterlimit:10;}
	.st38{clip-path:url(#SVGID_40_);}
	.st39{fill:url(#SVGID_41_);}
	.st40{fill:#13E1DB;stroke:url(#SVGID_42_);stroke-width:3.6109;stroke-miterlimit:10;}
	.st41{fill:#13E1DB;stroke:url(#SVGID_43_);stroke-width:3.6109;stroke-miterlimit:10;}
	.st42{fill:#13E1DB;stroke:url(#SVGID_44_);stroke-width:3.6109;stroke-miterlimit:10;}
</style>
<g>
	<g>
		<g>
			<g>
				<path class="st0" d="M360,93.8H29.7c-26,0-39.3,31-21.5,49.9l1289.6,1365.9h149.8L463.8,146.9C439.8,113.6,401.1,93.8,360,93.8z
					 M525,501.6c-18.9,0-36.9-8.3-49.2-22.6L326.6,305c-16.6-19.4-2.9-49.4,22.7-49.4H360c19.7,0,38.4,9,50.7,24.4l137.7,173
					C564,472.6,550.1,501.6,525,501.6z M841.7,93.8H485.4l111.8,161.8h229.5c10.8,0,20.8,5.9,26.1,15.3l104.1,186.2
					c11.1,19.9-3.3,44.5-26.1,44.5h-26.6L786.9,309.1H634.1l829.3,1200.6h128.7L935.3,152.5C917.9,116.6,881.5,93.8,841.7,93.8z
					 M1841.4,309.1h-154.9c-15.2,0-27.9-11.3-29.7-26.4l-3.2-27.1H1922l4.6-161.8l-364.4,0c-55.1,0-96.2,50.7-84.9,104.6l41.3,196.1
					c6.6,31.3,34.2,53.7,66.1,53.7h191.7l1.2,21.8c1,17.2-12.7,31.6-29.8,31.6h-206.7l212.3,1008.1h133.1l31.7-1121.5
					C1919.5,344.8,1884.7,309.1,1841.4,309.1z M2306.5,309.1h-124.6c-18.4,0-32.4-16.4-29.5-34.6l3-18.8h233l47-161.8h-357.6
					c-45.7,0-83.6,35.4-86.7,81l-14.3,212.7c-2.2,32.8,23.8,60.6,56.7,60.6h133l-5.4,29c-2.6,14.2-15,24.5-29.4,24.5H1969
					l-67.9,1008.1h123.1l330.1-1136.9C2363.6,340.9,2339.7,309.1,2306.5,309.1z M2613.4,501.6c-21.8,0-36.2-22.5-27.2-42.3l5.1-11.1
					h187.9l80.2-139.1h-158.1c-21.8,0-36.2-22.5-27.2-42.3l5.1-11.1h214.2l90.2-161.8l-484.6,0L2041,1509.7h126l581.3-1008.1H2613.4
					z M3346.1,93.8l-165.9,214.8c-5.7,7.3-14.4,11.6-23.7,11.6c-24.5,0-38.6-27.8-24.1-47.6l130.9-178.9H3040l-184.4,302.3
					c-16.9,27.7,3,63.3,35.5,63.3h49.4l-726,1050.3h60.4l868.5-1050.3h65.7c11.9,0,23.3-5.1,31.2-14.1L3550,93.8H3346.1z
					 M1389.1,448.1h40.2c11.2,0,21.4-3.9,29.3-10.4c0.7-0.5,1.3-1.1,1.9-1.7c9.4-8.6,15.2-20.9,15.3-34.3c0-3.6-0.4-7.2-1.3-10.8
					l-70.2-297.1h-178.5l11.5,35.2l45.9,140.9c1,3,1.5,6,1.5,9c0.2,16-12.8,30.1-29.9,30.1h-4.7c-12.5,0-23.7-7.8-28-19.5
					l-54.3-146.8l-18.1-48.9h-94.3l-94.3,0l34.5,75.3l103.6,225.8c3.7,8.1,8.5,15.5,14.2,22c2.8,3.3,5.9,6.3,9.2,9.1
					c11.4,9.8,25.1,16.8,40,20c6.4,1.4,13,2.1,19.7,2.1h35.3l419.8,1061.5l63.6,0l-259.9-885.1L1389.1,448.1z"/>
			</g>
		</g>
		<path class="st0" d="M3769.5,0h-105.5l-46,52.2h151.6l0,0c23.1,0,23.1,34.6,0,34.6l0,0h-136.2l-46,52.2l-39.1,44.3l0,0l-54.9,62.2
			h219.2l54.9-62.2h-148.2l39.1-44.3h111.2C3862.2,139.1,3862.2,0,3769.5,0z"/>
		<g>
			<path class="st0" d="M1287.2,624.5l-69.8-176.4l-35.3,0c-35.7,0-68.2-20.8-83.1-53.3L961,93.8l188.6,0l72.4,195.7
				c4.3,11.7,15.5,19.5,28,19.5h4.7c20.3,0,34.7-19.8,28.4-39.2l-57.3-176.1l178.5,0l70.2,297.1c6.9,29.2-15.2,57.2-45.2,57.2h-40.2
				l51.8,176.4"/>
		</g>
		<path class="st0" d="M3180.2,308.6c-5.7,7.3-14.4,11.6-23.7,11.6c-24.5,0-38.6-27.8-24.1-47.6l130.9-178.9H3040l-184.4,302.3
			c-16.9,27.7,3,63.3,35.5,63.3h49.4l-114.2,165.2h180.5l136.6-165.2h65.7c11.9,0,23.3-5.1,31.2-14.1L3550,93.8h-203.9L3180.2,308.6
			z"/>
		<path class="st0" d="M2327.2,624.6h350.1l70.9-123h-134.9c-21.8,0-36.2-22.5-27.2-42.3l5.1-11.1h187.9l80.2-139.1h-158.1
			c-21.8,0-36.2-22.5-27.2-42.3l5.1-11.1h214.2l90.2-161.8l-484.6,0L2327.2,624.6z"/>
		<path class="st0" d="M1991,174.8l-14.3,212.7c-2.2,32.8,23.8,60.6,56.7,60.6h133l-5.4,29c-2.6,14.2-15,24.5-29.4,24.5H1969
			l-8.3,123H2250c18.5,0,34.8-12.2,39.9-30l64.4-221.8c9.3-31.9-14.7-63.7-47.8-63.7h-124.6c-18.4,0-32.4-16.4-29.5-34.6l3-18.8h233
			l47-161.8h-357.6C2032,93.8,1994.1,129.2,1991,174.8z"/>
		<path class="st0" d="M1477.4,198.4l41.3,196.1c6.6,31.3,34.2,53.7,66.1,53.7h191.7l1.2,21.8c1,17.2-12.7,31.6-29.8,31.6h-206.7
			l25.9,123h304.1c22.5,0,40.9-17.9,41.6-40.4l5.5-196c1.2-43.3-33.6-79.1-76.9-79.1h-154.9c-15.2,0-27.9-11.3-29.7-26.4l-3.2-27.1
			H1922l4.6-161.8l-364.4,0C1507.2,93.8,1466,144.5,1477.4,198.4z"/>
		<path class="st0" d="M935.3,152.5c-17.4-35.9-53.7-58.7-93.6-58.7H485.4l111.8,161.8h229.5c10.8,0,20.8,5.9,26.1,15.3l104.1,186.2
			c11.1,19.9-3.3,44.5-26.1,44.5h-26.6L786.9,309.1H634.1L852,624.6h245.4c30.7,0,50.8-32.1,37.4-59.7L935.3,152.5z"/>
		<path class="st0" d="M463.8,146.9c-24.1-33.3-62.7-53.1-103.8-53.1H29.6c-26,0-39.3,31-21.5,49.9L431.4,592
			c19.6,20.8,46.9,32.5,75.4,32.5h98.9c84.6,0,133.7-95.9,84.1-164.5L463.8,146.9z M525,501.6c-18.9,0-36.9-8.3-49.2-22.6L326.6,305
			c-16.6-19.4-2.9-49.4,22.7-49.4H360c19.7,0,38.4,9,50.7,24.4l137.7,173C564,472.6,550.1,501.6,525,501.6z"/>
	</g>
</g>
</svg>

<?xml version="1.0" encoding="utf-8"?>
<svg version="1.1" viewBox="0 0 3839 624.6" xmlns="http://www.w3.org/2000/svg">
  <path class="st0" d="M 3769.5 0 L 3664 0 L 3618 52.2 L 3769.6 52.2 L 3769.6 52.2 C 3792.7 52.2 3792.7 86.8 3769.6 86.8 L 3769.6 86.8 L 3633.4 86.8 L 3587.4 139 L 3548.3 183.3 L 3548.3 183.3 L 3493.4 245.5 L 3712.6 245.5 L 3767.5 183.3 L 3619.3 183.3 L 3658.4 139 L 3769.6 139 C 3862.2 139.1 3862.2 0 3769.5 0 Z" style="fill: rgb(255, 255, 255);"/>
  <path class="st0" d="M 1287.2 624.5 L 1217.4 448.1 L 1182.1 448.1 C 1146.4 448.1 1113.9 427.3 1099 394.8 L 961 93.8 L 1149.6 93.8 L 1222 289.5 C 1226.3 301.2 1237.5 309 1250 309 L 1254.7 309 C 1275 309 1289.4 289.2 1283.1 269.8 L 1225.8 93.7 L 1404.3 93.7 L 1474.5 390.8 C 1481.4 420 1459.3 448 1429.3 448 L 1389.1 448 L 1440.9 624.4" style="fill: rgb(255, 255, 255);"/>
  <path class="st0" d="M 3180.2 308.6 C 3174.5 315.9 3165.8 320.2 3156.5 320.2 C 3132 320.2 3117.9 292.4 3132.4 272.6 L 3263.3 93.7 L 3040 93.7 L 2855.6 396 C 2838.7 423.7 2858.6 459.3 2891.1 459.3 L 2940.5 459.3 L 2826.3 624.5 L 3006.8 624.5 L 3143.4 459.3 L 3209.1 459.3 C 3221 459.3 3232.4 454.2 3240.3 445.2 L 3550 93.8 L 3346.1 93.8 L 3180.2 308.6 Z" style="fill: rgb(255, 255, 255);"/>
  <path class="st0" d="M 2327.2 624.6 L 2677.3 624.6 L 2748.2 501.6 L 2613.3 501.6 C 2591.5 501.6 2577.1 479.1 2586.1 459.3 L 2591.2 448.2 L 2779.1 448.2 L 2859.3 309.1 L 2701.2 309.1 C 2679.4 309.1 2665 286.6 2674 266.8 L 2679.1 255.7 L 2893.3 255.7 L 2983.5 93.9 L 2498.9 93.9 L 2327.2 624.6 Z" style="fill: rgb(255, 255, 255);"/>
  <path class="st0" d="M 1991 174.8 L 1976.7 387.5 C 1974.5 420.3 2000.5 448.1 2033.4 448.1 L 2166.4 448.1 L 2161 477.1 C 2158.4 491.3 2146 501.6 2131.6 501.6 L 1969 501.6 L 1960.7 624.6 L 2250 624.6 C 2268.5 624.6 2284.8 612.4 2289.9 594.6 L 2354.3 372.8 C 2363.6 340.9 2339.6 309.1 2306.5 309.1 L 2181.9 309.1 C 2163.5 309.1 2149.5 292.7 2152.4 274.5 L 2155.4 255.7 L 2388.4 255.7 L 2435.4 93.9 L 2077.8 93.9 C 2032 93.8 1994.1 129.2 1991 174.8 Z" style="fill: rgb(255, 255, 255);"/>
  <path class="st0" d="M 1477.4 198.4 L 1518.7 394.5 C 1525.3 425.8 1552.9 448.2 1584.8 448.2 L 1776.5 448.2 L 1777.7 470 C 1778.7 487.2 1765 501.6 1747.9 501.6 L 1541.2 501.6 L 1567.1 624.6 L 1871.2 624.6 C 1893.7 624.6 1912.1 606.7 1912.8 584.2 L 1918.3 388.2 C 1919.5 344.9 1884.7 309.1 1841.4 309.1 L 1686.5 309.1 C 1671.3 309.1 1658.6 297.8 1656.8 282.7 L 1653.6 255.6 L 1922 255.6 L 1926.6 93.8 L 1562.2 93.8 C 1507.2 93.8 1466 144.5 1477.4 198.4 Z" style="fill: rgb(255, 255, 255);"/>
  <path class="st0" d="M 935.3 152.5 C 917.9 116.6 881.6 93.8 841.7 93.8 L 485.4 93.8 L 597.2 255.6 L 826.7 255.6 C 837.5 255.6 847.5 261.5 852.8 270.9 L 956.9 457.1 C 968 477 953.6 501.6 930.8 501.6 L 904.2 501.6 L 786.9 309.1 L 634.1 309.1 L 852 624.6 L 1097.4 624.6 C 1128.1 624.6 1148.2 592.5 1134.8 564.9 L 935.3 152.5 Z" style="fill: rgb(255, 255, 255);"/>
  <path class="st0" d="M 463.8 146.9 C 439.7 113.6 401.1 93.8 360 93.8 L 29.6 93.8 C 3.6 93.8 -9.7 124.8 8.1 143.7 L 431.4 592 C 451 612.8 478.3 624.5 506.8 624.5 L 727.3 624.5 C 761.2 624.5 780.9 586.1 761 558.6 L 463.8 146.9 Z M 525 501.6 C 506.1 501.6 488.1 493.3 475.8 479 L 326.6 305 C 310 285.6 323.7 255.6 349.3 255.6 L 360 255.6 C 379.7 255.6 398.4 264.6 410.7 280 L 548.4 453 C 564 472.6 550.1 501.6 525 501.6 Z" style="fill: rgb(255, 255, 255);"/>
</svg>
